kettle.svg

<svg fill="currentColor" viewBox="0 0 24 24"><path d="M12.5 3C7.81 3 4 5.69 4 9c0 1.19.5 2.34 1.44 3.33A6.8 6.8 0 0 0 4 16.5V20c0 1.11.89 2 2 2h13c1.11 0 2-.89 2-2v-3.5c0-1.22-.34-2.43-1-3.5l2-2-3-3-2.1 2.1A9.2 9.2 0 0 0 12.5 9c-1.85 0-3.55.53-4.95 1.41C7.19 9.97 7 9.5 7 9c0-1.79 2.46-3.25 5.5-3.25 1.43 0 2.8.33 3.83.92l2.02-2.02C16.77 3.59 14.68 3 12.5 3m0 8c.34 0 .67.04 1 .09-3.11.48-5.5 3.16-5.5 6.41V20H6v-2.5a6.5 6.5 0 0 1 6.5-6.5"/></svg>

<svg  viewBox="0 0 24 24" fill="currentColor"><path  d="M12.5,3C7.81,3 4,5.69 4,9V9C4,10.19 4.5,11.34 5.44,12.33C4.53,13.5 4,14.96 4,16.5C4,17.64 4,18.83 4,20C4,21.11 4.89,22 6,22H19C20.11,22 21,21.11 21,20C21,18.85 21,17.61 21,16.5C21,15.28 20.66,14.07 20,13L22,11L19,8L16.9,10.1C15.58,9.38 14.05,9 12.5,9C10.65,9 8.95,9.53 7.55,10.41C7.19,9.97 7,9.5 7,9C7,7.21 9.46,5.75 12.5,5.75V5.75C13.93,5.75 15.3,6.08 16.33,6.67L18.35,4.65C16.77,3.59 14.68,3 12.5,3M12.5,11C12.84,11 13.17,11.04 13.5,11.09C10.39,11.57 8,14.25 8,17.5V20H6V17.5A6.5,6.5 0 0,1 12.5,11Z"/></svg>
